X:517
T: KEIN FEUER KEINE KOHLE KANN BRENNEN
N: E0507
O: Europa, Mitteleuropa, Deutschland
R: Liebes - Lied
M: 3/4
L: 1/8
K: F
C2 | F2F2GG | A2A3
B | c2dcBA | G4
c2 | d2Bdfd | dcc2
Ac | cBA2G2 | F3
AGB | A3cBd | c2fz
Ac | cBA2G2 | F4

@@@ Tune index: 4167
